X:0346
T:The Braes of Aughtertyre.
M:C|
L:1/8
Q:1/2=104
I: || ::
N:bar 8 is |(f/e/)(d/c/) dF TF2D2|| in the book
Z:Jack Campin * www.campin.me.uk * 2009
K:D
D3 E F(AA)B|defe dBAd|B/B/B BA B2b2      | fdaf           Te2d2 |
D3 E FAAB  |defe dBAd|BdAd     GdFd      |(f/e/)(d/c/) dF TE2D2||
fgab afda  |bgeg fedA|B/B/B ba b2{bc'}d'2| fdaf           Te2d2 |
fgab afda  |bgeg fedA|BdAd     GdFd      |(f/e/)(d/c/) dF TE2D2:|
<end>
<start>
